outputs/icons/action/visibility_sharp.svg

<svg xmlns="http://www.w3.org/2000/svg" width="1200" height="1200" fill="none"><g clip-path="url(#a)"><path fill="#000" d="M600 200c-250 0-463.5 155.5-550 375 86.5 219.5 300 375 550 375s463.5-155.5 550-375c-86.5-219.5-300-375-550-375m0 625c-138 0-250-112-250-250s112-250 250-250 250 112 250 250-112 250-250 250m0-400c-83 0-150 67-150 150s67 150 150 150 150-67 150-150-67-150-150-150"/></g><defs><clipPath id="a"><path fill="#fff" d="M0 0h1200v1200H0z"/></clipPath></defs></svg>

<svg width="1200" height="1200" viewBox="0 0 1200 1200" fill="none" xmlns="http://www.w3.org/2000/svg"><g clip-path="url(#clip0_117_792)"><path d="M600 200C350 200 136.5 355.5 50 575C136.5 794.5 350 950 600 950C850 950 1063.5 794.5 1150 575C1063.5 355.5 850 200 600 200ZM600 825C462 825 350 713 350 575C350 437 462 325 600 325C738 325 850 437 850 575C850 713 738 825 600 825ZM600 425C517 425 450 492 450 575C450 658 517 725 600 725C683 725 750 658 750 575C750 492 683 425 600 425Z" fill="black"/></g><defs><clipPath id="clip0_117_792"><path width="24" fill="white" d="M0 0H1200V1200H0V0z"/></clipPath></defs></svg>
